X:1
T:Serres chaudes
T:Serre d'ennui
T:2. Serre d'ennui
T:Ernest Chausson
T:Maurice Maeterlinck
T:Serres chaudes
T:Creative Commons copyright waiver (CC0 1.0 Universal) 
T:Creative Commons copyright waiver (CC0 1.0 Universal) 
C:Ernest Chausson
Z:Maeterlinck
Z:Creative Commons copyright waiver (CC0 1.0 Universal)
L:1/8
M:4/4
K:G
V:1 treble nm="Voice" snm="Vo."
V:1
 z4 z2 e2- | e4- ed cd | B4 A3 A | G4- G2 z2 | z _B BB =BB BB | ^c3 c =cc de | e4 d2 c2 | %7
w: O|* * cet en- nui|bleu dans le|coeur! *|A- vec la vi- si- on meil-|leu- re, Dans le clair de|lu- ne qui|
 c4 =F2 z2 | A2 A2 _B3 _G | =A4 =G3 F | =F4 z4 | z2 ^E2 ^F2 ^G2 | ^G4 G2 ^AB | ^c2 ^D2 z F ^G=A | %14
w: pleu- re,|De mes rê- ves|bleus de lan-|gueur!|Cet en- nui|bleu com- me la|ser- re, Où- l'on voit|
 B3 B z =c2 =c | =f2 ed =c2 BA | B3 G G4 | z2 G2 G2 A_B | _B4 A2 G2 | A6 ^D2 | z2 B2 e3 e | %21
w: clo- ses à tra-|vers Les vi- tra- ges pro-|fonds et verts,|Cou= ver- tes de|lune et de|ver- re|Les gran- des|
 d2 d2 c3 c | B4- B c2 d | c2 B2 A2- (3AGA | B4 F2 z2 | d2 B2 ^G2 F2 | A8 | z2 c4 E2 | G6 G2 | %29
w: vé- gé- ta- ti-|ons * Dont l'ou-|bli noc- tur- * ne s'al-|lon- ge,|Im- mo- bi- le-|ment|Comme un|son- ge|
 z4 _B2 D2 | =F3 F (3^F2 ^G2 F2 | ^c8 | e3 e d2 =c2 | B4 A2 A2 | G4 G2 z2 | _BB AB =B2 BB | %36
w: Sur les|ro- ses des pas- si-|ons.|Où de l'eau très|len- te s'é-|lè- ve|En mé- lant la lune et le|
 ^c4 z =c GA | B4 E4- | E2- E z =F2 G2 | G4- G2 z2 | z ^d2 ^B2 B2 ^A | ^c8 | z2 e4 ^G2 | B8- | %44
w: ciel En un san-|glot glauque|* * é- ter-|nel *|Mo- no- to- ne-|ment|comme un|rê-|
 B4 B,4 | z8 |] %46
w: * ve.||

